src/images/svg/career-3.svg

<svg width="120" height="120" viewBox="0 0 120 120" fill="none" xmlns="http://www.w3.org/2000/svg">
<circle cx="60.1596" cy="60.1775" r="58.5366" fill="white" stroke="#EFEFEF" stroke-width="2"/>
<ellipse cx="60" cy="60" rx="42" ry="42" fill="#FF444F"/>
<path d="M55.602 53.038C58.2527 53.038 60.1697 52.541 61.353 51.547C62.5837 50.5057 63.199 49.2277 63.199 47.713V47.216C63.199 45.4173 62.6073 43.9737 61.424 42.885C60.288 41.7963 58.655 41.252 56.525 41.252C54.537 41.252 52.6673 41.7727 50.916 42.814C49.1647 43.808 47.6737 45.2517 46.443 47.145L39.769 40.897C40.7157 39.6663 41.7333 38.554 42.822 37.56C43.9107 36.5187 45.1413 35.643 46.514 34.933C47.8867 34.1757 49.425 33.6077 51.129 33.229C52.833 32.803 54.75 32.59 56.88 32.59C59.5307 32.59 61.921 32.8977 64.051 33.513C66.2283 34.1283 68.0743 35.0277 69.589 36.211C71.151 37.347 72.3343 38.7197 73.139 40.329C73.991 41.9383 74.417 43.737 74.417 45.725C74.417 47.287 74.1567 48.707 73.636 49.985C73.1627 51.263 72.4763 52.3753 71.577 53.322C70.725 54.2687 69.731 55.0497 68.595 55.665C67.459 56.233 66.252 56.6353 64.974 56.872V57.298C66.4413 57.582 67.7903 58.0553 69.021 58.718C70.299 59.3333 71.3877 60.138 72.287 61.132C73.2337 62.126 73.9673 63.3093 74.488 64.682C75.0087 66.0073 75.269 67.522 75.269 69.226C75.269 71.4507 74.8193 73.4623 73.92 75.261C73.0207 77.0597 71.7427 78.598 70.086 79.876C68.4293 81.154 66.4413 82.148 64.122 82.858C61.8027 83.5207 59.2467 83.852 56.454 83.852C53.9453 83.852 51.7207 83.5917 49.78 83.071C47.8393 82.5503 46.1353 81.864 44.668 81.012C43.248 80.1127 41.9937 79.095 40.905 77.959C39.8637 76.823 38.9407 75.616 38.136 74.338L46.017 68.232C47.1057 70.2673 48.431 71.9477 49.993 73.273C51.6023 74.551 53.756 75.19 56.454 75.19C58.868 75.19 60.7377 74.5983 62.063 73.415C63.4357 72.1843 64.122 70.5277 64.122 68.445V68.019C64.122 65.9837 63.341 64.469 61.779 63.475C60.2643 62.4337 58.158 61.913 55.46 61.913H50.987V53.038H55.602Z" fill="white"/>
</svg>

<svg width="120" height="120" fill="none" xmlns="http://www.w3.org/2000/svg"><circle cx="60.16" cy="60.178" r="58.537" fill="#fff" stroke="#EFEFEF" stroke-width="2"/><circle cx="60" cy="60" fill="#FF444F" r="42"/><path d="M55.602 53.038c2.65 0 4.568-.497 5.751-1.491 1.23-1.041 1.846-2.32 1.846-3.834v-.497c0-1.799-.592-3.242-1.775-4.331-1.136-1.089-2.769-1.633-4.899-1.633-1.988 0-3.858.52-5.609 1.562-1.751.994-3.242 2.438-4.473 4.331l-6.674-6.248a25.82 25.82 0 0 1 3.053-3.337 15.829 15.829 0 0 1 3.692-2.627c1.373-.757 2.911-1.325 4.615-1.704 1.704-.426 3.621-.639 5.751-.639 2.65 0 5.041.308 7.171.923 2.177.615 4.023 1.515 5.538 2.698 1.562 1.136 2.745 2.509 3.55 4.118.852 1.61 1.278 3.408 1.278 5.396 0 1.562-.26 2.982-.781 4.26a9.652 9.652 0 0 1-2.059 3.337 11.076 11.076 0 0 1-2.982 2.343c-1.136.568-2.343.97-3.621 1.207v.426c1.467.284 2.816.757 4.047 1.42 1.278.615 2.367 1.42 3.266 2.414.947.994 1.68 2.177 2.201 3.55.52 1.325.781 2.84.781 4.544 0 2.225-.45 4.236-1.349 6.035-.9 1.799-2.177 3.337-3.834 4.615s-3.645 2.272-5.964 2.982c-2.32.663-4.875.994-7.668.994-2.509 0-4.733-.26-6.674-.781-1.94-.52-3.645-1.207-5.112-2.059a20.007 20.007 0 0 1-3.763-3.053 25.31 25.31 0 0 1-2.769-3.621l7.881-6.106c1.089 2.035 2.414 3.716 3.976 5.041 1.61 1.278 3.763 1.917 6.461 1.917 2.414 0 4.284-.592 5.609-1.775 1.373-1.23 2.059-2.887 2.059-4.97v-.426c0-2.035-.781-3.55-2.343-4.544-1.515-1.041-3.621-1.562-6.319-1.562h-4.473v-8.875h4.615z" fill="#fff"/></svg>
